src/assets/icons/info-circle.svg

<svg width="14" height="14" viewBox="0 0 14 14" fill="none" xmlns="http://www.w3.org/2000/svg">
<g id="info-circle">
<g clip-path="url(#clip0_156_4684)">
<path id="Vector" fill-rule="evenodd" clip-rule="evenodd" d="M1.16667 7C1.16667 3.77834 3.77834 1.16667 7 1.16667C10.2217 1.16667 12.8333 3.77834 12.8333 7C12.8333 10.2217 10.2217 12.8333 7 12.8333C3.77834 12.8333 1.16667 10.2217 1.16667 7ZM7 0C3.13401 0 0 3.13401 0 7C0 10.866 3.13401 14 7 14C10.866 14 14 10.866 14 7C14 3.13401 10.866 0 7 0ZM7 3.30556C7.32217 3.30556 7.58333 3.56672 7.58333 3.88889V4.27778C7.58333 4.59994 7.32217 4.86111 7 4.86111C6.67783 4.86111 6.41667 4.59994 6.41667 4.27778V3.88889C6.41667 3.56672 6.67783 3.30556 7 3.30556ZM7 5.63889C7.32217 5.63889 7.58333 5.90006 7.58333 6.22222V10.1111C7.58333 10.4333 7.32217 10.6944 7 10.6944C6.67783 10.6944 6.41667 10.4333 6.41667 10.1111V6.22222C6.41667 5.90006 6.67783 5.63889 7 5.63889Z" fill="black"/>
</g>
</g>
<defs>
<clipPath id="clip0_156_4684">
<rect width="14" height="14" fill="white"/>
</clipPath>
</defs>
</svg>

<svg xmlns="http://www.w3.org/2000/svg" fill="none" viewBox="0 0 14 14"><g clip-path="url(#a)"><path fill="#000" fill-rule="evenodd" d="M1.167 7a5.833 5.833 0 1 1 11.666 0A5.833 5.833 0 0 1 1.167 7M7 0a7 7 0 1 0 0 14A7 7 0 0 0 7 0m0 3.306c.322 0 .583.26.583.583v.389a.583.583 0 1 1-1.166 0v-.39c0-.321.26-.582.583-.582m0 2.333c.322 0 .583.261.583.583v3.89a.583.583 0 1 1-1.166 0v-3.89c0-.322.26-.583.583-.583" clip-rule="evenodd"/></g><defs><clipPath id="a"><path fill="#fff" d="M0 0h14v14H0z"/></clipPath></defs></svg>
